svg/logo/android_fill.svg

<?xml version="1.0" encoding="UTF-8"?>
<svg width="24px" height="24px" viewBox="0 0 24 24" version="1.1" xmlns="http://www.w3.org/2000/svg" xmlns:xlink="http://www.w3.org/1999/xlink">
    <title>android_fill</title>
    <g id="页面-1" stroke="none" stroke-width="1" fill="none" fill-rule="evenodd">
        <g id="Brand" transform="translate(-96.000000, -48.000000)">
            <g id="android_fill" transform="translate(96.000000, 48.000000)">
                 <path d="M24,0 L24,24 L0,24 L0,0 L24,0 Z M12.5934901,23.257841 L12.5819402,23.2595131 L12.5108777,23.2950439 L12.4918791,23.2987469 L12.4918791,23.2987469 L12.4767152,23.2950439 L12.4056548,23.2595131 C12.3958229,23.2563662 12.3870493,23.2590235 12.3821421,23.2649074 L12.3780323,23.275831 L12.360941,23.7031097 L12.3658947,23.7234994 L12.3769048,23.7357139 L12.4804777,23.8096931 L12.4953491,23.8136134 L12.4953491,23.8136134 L12.5071152,23.8096931 L12.6106902,23.7357139 L12.6232938,23.7196733 L12.6232938,23.7196733 L12.6266527,23.7031097 L12.609561,23.275831 C12.6075724,23.2657013 12.6010112,23.2592993 12.5934901,23.257841 L12.5934901,23.257841 Z M12.8583906,23.1452862 L12.8445485,23.1473072 L12.6598443,23.2396597 L12.6498822,23.2499052 L12.6498822,23.2499052 L12.6471943,23.2611114 L12.6650943,23.6906389 L12.6699349,23.7034178 L12.6699349,23.7034178 L12.678386,23.7104931 L12.8793402,23.8032389 C12.8914285,23.8068999 12.9022333,23.8029875 12.9078286,23.7952264 L12.9118235,23.7811639 L12.8776777,23.1665331 C12.8752882,23.1545897 12.8674102,23.1470016 12.8583906,23.1452862 L12.8583906,23.1452862 Z M12.1430473,23.1473072 C12.1332178,23.1423925 12.1221763,23.1452606 12.1156365,23.1525954 L12.1099173,23.1665331 L12.0757714,23.7811639 C12.0751323,23.7926639 12.0828099,23.8018602 12.0926481,23.8045676 L12.108256,23.8032389 L12.3092106,23.7104931 L12.3186497,23.7024347 L12.3186497,23.7024347 L12.3225043,23.6906389 L12.340401,23.2611114 L12.337245,23.2485176 L12.337245,23.2485176 L12.3277531,23.2396597 L12.1430473,23.1473072 Z" id="MingCute" fill-rule="nonzero"></path>
                <path d="M20,14 L20,19 C20,20.6569 18.6569,22 17,22 L7,22 C5.34315,22 4,20.6569 4,19 L4,14 L20,14 Z M12,3 C13.3298,3 14.5838,3.32446 15.6872,3.89854 L16.2929,3.29289 C16.6834,2.90237 17.3166,2.90237 17.7071,3.29289 C18.0976,3.68342 18.0976,4.31658 17.7071,4.70711 L17.3564,5.05779 C18.9797,6.52196 20,8.64183 20,11 L20,12 L4,12 L4,11 C4,8.64183 5.02032,6.52196 6.64358,5.05779 L6.29289,4.70711 C5.90237,4.31658 5.90237,3.68342 6.29289,3.29289 C6.68342,2.90237 7.31658,2.90237 7.70711,3.29289 L8.31276,3.89854 C9.41616,3.32446 10.6702,3 12,3 Z M9,7 C8.44772,7 8,7.44772 8,8 C8,8.55228 8.44772,9 9,9 C9.55228,9 10,8.55228 10,8 C10,7.44772 9.55228,7 9,7 Z M15,7 C14.4477,7 14,7.44772 14,8 C14,8.55228 14.4477,9 15,9 C15.5523,9 16,8.55228 16,8 C16,7.44772 15.5523,7 15,7 Z" id="形状" fill="#09244B"></path>
            </g>
        </g>
    </g>
</svg>

<svg xmlns="http://www.w3.org/2000/svg" width="24" height="24"><g fill="none" fill-rule="evenodd"><path d="M24 0v24H0V0h24ZM12.593 23.258l-.011.002-.071.035-.02.004-.014-.004-.071-.035c-.01-.004-.019-.001-.024.005l-.004.01-.017.428.005.02.01.013.104.074.015.004.012-.004.104-.074.012-.016.004-.017-.017-.427c-.002-.01-.009-.017-.017-.018Zm.265-.113-.013.002-.185.093-.01.01-.003.011.018.43.005.012.008.007.201.093c.012.004.023 0 .029-.008l.004-.014-.034-.614c-.003-.012-.01-.02-.02-.022Zm-.715.002a.023.023 0 0 0-.027.006l-.006.014-.034.614c0 .012.007.02.017.024l.015-.002.201-.093.01-.008.004-.011.017-.43-.003-.012-.01-.01-.184-.092Z"/><path fill="#09244B" d="M20 14v5a3 3 0 0 1-3 3H7a3 3 0 0 1-3-3v-5h16ZM12 3c1.33 0 2.584.324 3.687.899l.606-.606a1 1 0 1 1 1.414 1.414l-.35.35A7.98 7.98 0 0 1 20 11v1H4v-1a7.98 7.98 0 0 1 2.644-5.942l-.351-.35a1 1 0 0 1 1.414-1.415l.606.606A7.966 7.966 0 0 1 12 3ZM9 7a1 1 0 1 0 0 2 1 1 0 0 0 0-2Zm6 0a1 1 0 1 0 0 2 1 1 0 0 0 0-2Z"/></g></svg>
